_site/images/security/encryption.svg

<svg height="443" viewBox="0 0 505 443" width="505" xmlns="http://www.w3.org/2000/svg" xmlns:xlink="http://www.w3.org/1999/xlink"><defs><rect id="a" height="248" rx="12" width="339"/><filter id="b" height="182.7%" width="149.3%" x="-24.6%" y="-34.9%"><feOffset dx="0" dy="36" in="SourceAlpha" result="shadowOffsetOuter1"/><feGaussianBlur in="shadowOffsetOuter1" result="shadowBlurOuter1" stdDeviation="21.5"/><feColorMatrix in="shadowBlurOuter1" result="shadowMatrixOuter1" type="matrix" values="0 0 0 0 0   0 0 0 0 0   0 0 0 0 0  0 0 0 0.201115263 0"/><feOffset dx="0" dy="-3" in="SourceAlpha" result="shadowOffsetOuter2"/><feGaussianBlur in="shadowOffsetOuter2" result="shadowBlurOuter2" stdDeviation="22"/><feColorMatrix in="shadowBlurOuter2" result="shadowMatrixOuter2" type="matrix" values="0 0 0 0 0   0 0 0 0 0   0 0 0 0 0  0 0 0 0.0313632246 0"/><feMerge><feMergeNode in="shadowMatrixOuter1"/><feMergeNode in="shadowMatrixOuter2"/></feMerge></filter><rect id="c" height="160" rx="12" width="184"/><filter id="d" height="228.1%" width="190.8%" x="-45.4%" y="-54.1%"><feOffset dx="0" dy="36" in="SourceAlpha" result="shadowOffsetOuter1"/><feGaussianBlur in="shadowOffsetOuter1" result="shadowBlurOuter1" stdDeviation="21.5"/><feColorMatrix in="shadowBlurOuter1" result="shadowMatrixOuter1" type="matrix" values="0 0 0 0 0   0 0 0 0 0   0 0 0 0 0  0 0 0 0.201115263 0"/><feOffset dx="0" dy="-3" in="SourceAlpha" result="shadowOffsetOuter2"/><feGaussianBlur in="shadowOffsetOuter2" result="shadowBlurOuter2" stdDeviation="22"/><feColorMatrix in="shadowBlurOuter2" result="shadowMatrixOuter2" type="matrix" values="0 0 0 0 0   0 0 0 0 0   0 0 0 0 0  0 0 0 0.0313632246 0"/><feMerge><feMergeNode in="shadowMatrixOuter1"/><feMergeNode in="shadowMatrixOuter2"/></feMerge></filter></defs><g fill="none" fill-rule="evenodd" transform="translate(44 47)"><g transform="matrix(-1 0 0 1 417 0)"><use fill="#000" filter="url(#b)" xlink:href="#a"/><use fill="#fff" fill-rule="evenodd" xlink:href="#a"/><path d="m43.2 25.2h-14.4c-1.9882251 0-3.6 1.6117749-3.6 3.6v14.4c0 1.9882251 1.6117749 3.6 3.6 3.6h14.4c1.9882251 0 3.6-1.6117749 3.6-3.6v-14.4c0-1.9882251-1.6117749-3.6-3.6-3.6zm-3.6 14.4h-7.2v-7.2h7.2zm28.8 0c1.9882251 0 3.6-1.6117749 3.6-3.6s-1.6117749-3.6-3.6-3.6h-7.2v-7.2h7.2c1.9882251 0 3.6-1.6117749 3.6-3.6s-1.6117749-3.6-3.6-3.6h-7.848c-1.0885761-3.0575371-3.4944629-5.4634239-6.552-6.552v-7.848c0-1.9882251-1.6117749-3.6-3.6-3.6s-3.6 1.6117749-3.6 3.6v7.2h-7.2v-7.2c0-1.9882251-1.6117749-3.6-3.6-3.6s-3.6 1.6117749-3.6 3.6v7.2h-7.2v-7.2c0-1.9882251-1.6117749-3.6-3.6-3.6s-3.6 1.6117749-3.6 3.6v7.848c-3.0575371 1.0885761-5.4634239 3.4944629-6.552 6.552h-7.848c-1.9882251 0-3.6 1.6117749-3.6 3.6s1.6117749 3.6 3.6 3.6h7.2v7.2h-7.2c-1.9882251 0-3.6 1.6117749-3.6 3.6s1.6117749 3.6 3.6 3.6h7.2v7.2h-7.2c-1.9882251 0-3.6 1.6117749-3.6 3.6s1.6117749 3.6 3.6 3.6h7.848c1.0885761 3.0575371 3.4944629 5.4634239 6.552 6.552v7.848c0 1.9882251 1.6117749 3.6 3.6 3.6s3.6-1.6117749 3.6-3.6v-7.2h7.2v7.2c0 1.9882251 1.6117749 3.6 3.6 3.6s3.6-1.6117749 3.6-3.6v-7.2h7.2v7.2c0 1.9882251 1.6117749 3.6 3.6 3.6s3.6-1.6117749 3.6-3.6v-7.848c3.0575371-1.0885761 5.4634239-3.4944629 6.552-6.552h7.848c1.9882251 0 3.6-1.6117749 3.6-3.6s-1.6117749-3.6-3.6-3.6h-7.2v-7.2zm-14.4 10.8c0 1.9882251-1.6117749 3.6-3.6 3.6h-28.8c-1.9882251 0-3.6-1.6117749-3.6-3.6v-28.8c0-1.9882251 1.6117749-3.6 3.6-3.6h28.8c1.9882251 0 3.6 1.6117749 3.6 3.6z" fill="#0b7a76" fill-rule="nonzero" opacity=".404231" transform="translate(133 47)"/><g fill="#e1e8ee" transform="translate(58 157)"><path d="m4.5 0h204c2.485281 0 4.5 2.01471863 4.5 4.5 0 2.48528137-2.014719 4.5-4.5 4.5h-204c-2.48528137 0-4.5-2.01471863-4.5-4.5 0-2.48528137 2.01471863-4.5 4.5-4.5z"/><rect height="9" rx="4.5" width="213" y="19"/><path d="m17.5 38h178c2.485281 0 4.5 2.0147186 4.5 4.5 0 2.4852814-2.014719 4.5-4.5 4.5h-178c-2.4852814 0-4.5-2.0147186-4.5-4.5 0-2.4852814 2.0147186-4.5 4.5-4.5z"/></g></g><g transform="translate(0 157)"><use fill="#000" filter="url(#d)" xlink:href="#c"/><use fill="#fff" fill-rule="evenodd" xlink:href="#c"/></g><path d="m53.2 0h-16.8c-1.5463973 0-2.8 1.2536027-2.8 2.8s1.2536027 2.8 2.8 2.8h14v14c0 1.5463973 1.2536027 2.8 2.8 2.8s2.8-1.2536027 2.8-2.8v-16.8c0-1.5463973-1.2536027-2.8-2.8-2.8zm0 33.6c-1.5463973 0-2.8 1.2536027-2.8 2.8v14h-14c-1.5463973 0-2.8 1.2536027-2.8 2.8s1.2536027 2.8 2.8 2.8h16.8c1.5463973 0 2.8-1.2536027 2.8-2.8v-16.8c0-1.5463973-1.2536027-2.8-2.8-2.8zm-25.2-22.4c-4.6391919 0-8.4 3.7608081-8.4 8.4v2.8c-3.0927946 0-5.6 2.5072054-5.6 5.6v11.2c0 3.0927946 2.5072054 5.6 5.6 5.6h16.8c3.0927946 0 5.6-2.5072054 5.6-5.6v-11.2c0-3.0927946-2.5072054-5.6-5.6-5.6v-2.8c0-4.6391919-3.7608081-8.4-8.4-8.4zm-2.8 8.4c0-1.5463973 1.2536027-2.8 2.8-2.8s2.8 1.2536027 2.8 2.8v2.8h-5.6zm11.2 19.6h-16.8v-11.2h16.8zm-33.6-16.8c1.5463973 0 2.8-1.2536027 2.8-2.8v-14h14c1.5463973 0 2.8-1.2536027 2.8-2.8s-1.2536027-2.8-2.8-2.8h-16.8c-1.5463973 0-2.8 1.2536027-2.8 2.8v16.8c0 1.5463973 1.2536027 2.8 2.8 2.8zm16.8 28h-14v-14c0-1.5463973-1.2536027-2.8-2.8-2.8s-2.8 1.2536027-2.8 2.8v16.8c0 1.5463973 1.2536027 2.8 2.8 2.8h16.8c1.5463973 0 2.8-1.2536027 2.8-2.8s-1.2536027-2.8-2.8-2.8z" fill="#d3d9df" fill-rule="nonzero" transform="translate(64 209)"/></g></svg>

<?xml version="1.0" encoding="UTF-8"?>
<svg width="505px" height="443px" viewBox="0 0 505 443" version="1.1" xmlns="http://www.w3.org/2000/svg" xmlns:xlink="http://www.w3.org/1999/xlink">
    <!-- Generator: Sketch 52.6 (67491) - http://www.bohemiancoding.com/sketch -->
    <title>Group 5</title>
    <desc>Created with Sketch.</desc>
    <defs>
        <rect id="path-1" x="0" y="0" width="339" height="248" rx="12"></rect>
        <filter x="-24.6%" y="-34.9%" width="149.3%" height="182.7%" filterUnits="objectBoundingBox" id="filter-2">
            <feOffset dx="0" dy="36" in="SourceAlpha" result="shadowOffsetOuter1"></feOffset>
            <feGaussianBlur stdDeviation="21.5" in="shadowOffsetOuter1" result="shadowBlurOuter1"></feGaussianBlur>
            <feColorMatrix values="0 0 0 0 0   0 0 0 0 0   0 0 0 0 0  0 0 0 0.201115263 0" type="matrix" in="shadowBlurOuter1" result="shadowMatrixOuter1"></feColorMatrix>
            <feOffset dx="0" dy="-3" in="SourceAlpha" result="shadowOffsetOuter2"></feOffset>
            <feGaussianBlur stdDeviation="22" in="shadowOffsetOuter2" result="shadowBlurOuter2"></feGaussianBlur>
            <feColorMatrix values="0 0 0 0 0   0 0 0 0 0   0 0 0 0 0  0 0 0 0.0313632246 0" type="matrix" in="shadowBlurOuter2" result="shadowMatrixOuter2"></feColorMatrix>
            <feMerge>
                <feMergeNode in="shadowMatrixOuter1"></feMergeNode>
                <feMergeNode in="shadowMatrixOuter2"></feMergeNode>
            </feMerge>
        </filter>
        <rect id="path-3" x="0" y="0" width="184" height="160" rx="12"></rect>
        <filter x="-45.4%" y="-54.1%" width="190.8%" height="228.1%" filterUnits="objectBoundingBox" id="filter-4">
            <feOffset dx="0" dy="36" in="SourceAlpha" result="shadowOffsetOuter1"></feOffset>
            <feGaussianBlur stdDeviation="21.5" in="shadowOffsetOuter1" result="shadowBlurOuter1"></feGaussianBlur>
            <feColorMatrix values="0 0 0 0 0   0 0 0 0 0   0 0 0 0 0  0 0 0 0.201115263 0" type="matrix" in="shadowBlurOuter1" result="shadowMatrixOuter1"></feColorMatrix>
            <feOffset dx="0" dy="-3" in="SourceAlpha" result="shadowOffsetOuter2"></feOffset>
            <feGaussianBlur stdDeviation="22" in="shadowOffsetOuter2" result="shadowBlurOuter2"></feGaussianBlur>
            <feColorMatrix values="0 0 0 0 0   0 0 0 0 0   0 0 0 0 0  0 0 0 0.0313632246 0" type="matrix" in="shadowBlurOuter2" result="shadowMatrixOuter2"></feColorMatrix>
            <feMerge>
                <feMergeNode in="shadowMatrixOuter1"></feMergeNode>
                <feMergeNode in="shadowMatrixOuter2"></feMergeNode>
            </feMerge>
        </filter>
    </defs>
    <g id="Landing-page" stroke="none" stroke-width="1" fill="none" fill-rule="evenodd">
        <g id="1.9--Security" transform="translate(-843.000000, -1950.000000)">
            <g id="Group-6" transform="translate(139.000000, 1997.000000)">
                <g id="Group-5" transform="translate(748.000000, 0.000000)">
                    <g id="Group-51" transform="translate(247.500000, 124.000000) scale(-1, 1) translate(-247.500000, -124.000000) translate(78.000000, 0.000000)">
                        <g id="Group-31">
                            <g id="mcokup-2">
                                <g id="Group-4">
                                    <g id="Rectangle-5">
                                        <use fill="black" fill-opacity="1" filter="url(#filter-2)" xlink:href="#path-1"></use>
                                        <use fill="#FFFFFF" fill-rule="evenodd" xlink:href="#path-1"></use>
                                    </g>
                                    <g id="processor" opacity="0.404230841" transform="translate(133.000000, 47.000000)" fill="#0B7A76" fill-rule="nonzero">
                                        <path d="M43.2,25.2 L28.8,25.2 C26.8117749,25.2 25.2,26.8117749 25.2,28.8 L25.2,43.2 C25.2,45.1882251 26.8117749,46.8 28.8,46.8 L43.2,46.8 C45.1882251,46.8 46.8,45.1882251 46.8,43.2 L46.8,28.8 C46.8,26.8117749 45.1882251,25.2 43.2,25.2 Z M39.6,39.6 L32.4,39.6 L32.4,32.4 L39.6,32.4 L39.6,39.6 Z M68.4,39.6 C70.3882251,39.6 72,37.9882251 72,36 C72,34.0117749 70.3882251,32.4 68.4,32.4 L61.2,32.4 L61.2,25.2 L68.4,25.2 C70.3882251,25.2 72,23.5882251 72,21.6 C72,19.6117749 70.3882251,18 68.4,18 L60.552,18 C59.4634239,14.9424629 57.0575371,12.5365761 54,11.448 L54,3.6 C54,1.6117749 52.3882251,0 50.4,0 C48.4117749,0 46.8,1.6117749 46.8,3.6 L46.8,10.8 L39.6,10.8 L39.6,3.6 C39.6,1.6117749 37.9882251,0 36,0 C34.0117749,0 32.4,1.6117749 32.4,3.6 L32.4,10.8 L25.2,10.8 L25.2,3.6 C25.2,1.6117749 23.5882251,0 21.6,0 C19.6117749,0 18,1.6117749 18,3.6 L18,11.448 C14.9424629,12.5365761 12.5365761,14.9424629 11.448,18 L3.6,18 C1.6117749,18 0,19.6117749 0,21.6 C0,23.5882251 1.6117749,25.2 3.6,25.2 L10.8,25.2 L10.8,32.4 L3.6,32.4 C1.6117749,32.4 1.59872116e-15,34.0117749 1.59872116e-15,36 C1.59872116e-15,37.9882251 1.6117749,39.6 3.6,39.6 L10.8,39.6 L10.8,46.8 L3.6,46.8 C1.6117749,46.8 1.59872116e-15,48.4117749 1.59872116e-15,50.4 C1.59872116e-15,52.3882251 1.6117749,54 3.6,54 L11.448,54 C12.5365761,57.0575371 14.9424629,59.4634239 18,60.552 L18,68.4 C18,70.3882251 19.6117749,72 21.6,72 C23.5882251,72 25.2,70.3882251 25.2,68.4 L25.2,61.2 L32.4,61.2 L32.4,68.4 C32.4,70.3882251 34.0117749,72 36,72 C37.9882251,72 39.6,70.3882251 39.6,68.4 L39.6,61.2 L46.8,61.2 L46.8,68.4 C46.8,70.3882251 48.4117749,72 50.4,72 C52.3882251,72 54,70.3882251 54,68.4 L54,60.552 C57.0575371,59.4634239 59.4634239,57.0575371 60.552,54 L68.4,54 C70.3882251,54 72,52.3882251 72,50.4 C72,48.4117749 70.3882251,46.8 68.4,46.8 L61.2,46.8 L61.2,39.6 L68.4,39.6 Z M54,50.4 C54,52.3882251 52.3882251,54 50.4,54 L21.6,54 C19.6117749,54 18,52.3882251 18,50.4 L18,21.6 C18,19.6117749 19.6117749,18 21.6,18 L50.4,18 C52.3882251,18 54,19.6117749 54,21.6 L54,50.4 Z" id="Shape"></path>
                                    </g>
                                </g>
                                <g id="Group-3" transform="translate(58.000000, 157.000000)" fill="#E1E8EE">
                                    <path d="M4.5,-8.8817842e-16 L208.5,-2.84217094e-14 C210.985281,-1.34266352e-14 213,2.01471863 213,4.5 L213,4.5 C213,6.98528137 210.985281,9 208.5,9 L4.5,9 C2.01471863,9 3.04359188e-16,6.98528137 0,4.5 L0,4.5 C-3.04359188e-16,2.01471863 2.01471863,-4.31639638e-16 4.5,-8.8817842e-16 Z" id="Rectangle-7-Copy-3"></path>
                                    <rect id="Rectangle-7-Copy-2" x="0" y="19" width="213" height="9" rx="4.5"></rect>
                                    <path d="M17.5,38 L195.5,38 C197.985281,38 200,40.0147186 200,42.5 L200,42.5 C200,44.9852814 197.985281,47 195.5,47 L17.5,47 C15.0147186,47 13,44.9852814 13,42.5 L13,42.5 C13,40.0147186 15.0147186,38 17.5,38 Z" id="Rectangle-7-Copy-5"></path>
                                </g>
                            </g>
                        </g>
                    </g>
                    <g id="Group-51" transform="translate(0.000000, 157.000000)">
                        <g id="Group-31">
                            <g id="mcokup-2">
                                <g id="Group-4">
                                    <g id="Rectangle-5">
                                        <use fill="black" fill-opacity="1" filter="url(#filter-4)" xlink:href="#path-3"></use>
                                        <use fill="#FFFFFF" fill-rule="evenodd" xlink:href="#path-3"></use>
                                    </g>
                                    <g id="lock-access-(1)" transform="translate(64.000000, 52.000000)" fill="#D3D9DF" fill-rule="nonzero">
                                        <path d="M53.2,0 L36.4,0 C34.8536027,0 33.6,1.2536027 33.6,2.8 C33.6,4.3463973 34.8536027,5.6 36.4,5.6 L50.4,5.6 L50.4,19.6 C50.4,21.1463973 51.6536027,22.4 53.2,22.4 C54.7463973,22.4 56,21.1463973 56,19.6 L56,2.8 C56,1.2536027 54.7463973,0 53.2,0 Z M53.2,33.6 C51.6536027,33.6 50.4,34.8536027 50.4,36.4 L50.4,50.4 L36.4,50.4 C34.8536027,50.4 33.6,51.6536027 33.6,53.2 C33.6,54.7463973 34.8536027,56 36.4,56 L53.2,56 C54.7463973,56 56,54.7463973 56,53.2 L56,36.4 C56,34.8536027 54.7463973,33.6 53.2,33.6 Z M28,11.2 C23.3608081,11.2 19.6,14.9608081 19.6,19.6 L19.6,22.4 C16.5072054,22.4 14,24.9072054 14,28 L14,39.2 C14,42.2927946 16.5072054,44.8 19.6,44.8 L36.4,44.8 C39.4927946,44.8 42,42.2927946 42,39.2 L42,28 C42,24.9072054 39.4927946,22.4 36.4,22.4 L36.4,19.6 C36.4,14.9608081 32.6391919,11.2 28,11.2 Z M25.2,19.6 C25.2,18.0536027 26.4536027,16.8 28,16.8 C29.5463973,16.8 30.8,18.0536027 30.8,19.6 L30.8,22.4 L25.2,22.4 L25.2,19.6 Z M36.4,39.2 L19.6,39.2 L19.6,28 L36.4,28 L36.4,39.2 Z M2.8,22.4 C4.3463973,22.4 5.6,21.1463973 5.6,19.6 L5.6,5.6 L19.6,5.6 C21.1463973,5.6 22.4,4.3463973 22.4,2.8 C22.4,1.2536027 21.1463973,0 19.6,0 L2.8,0 C1.2536027,0 0,1.2536027 0,2.8 L0,19.6 C0,21.1463973 1.2536027,22.4 2.8,22.4 Z M19.6,50.4 L5.6,50.4 L5.6,36.4 C5.6,34.8536027 4.3463973,33.6 2.8,33.6 C1.2536027,33.6 0,34.8536027 0,36.4 L0,53.2 C0,54.7463973 1.2536027,56 2.8,56 L19.6,56 C21.1463973,56 22.4,54.7463973 22.4,53.2 C22.4,51.6536027 21.1463973,50.4 19.6,50.4 Z" id="Shape"></path>
                                    </g>
                                </g>
                            </g>
                        </g>
                    </g>
                </g>
            </g>
        </g>
    </g>
</svg>
